X:1
T:Morning Dew, The
T:Hare in the Heather, The
R:reel
D:Paddy Glackin: Ceol ar an bhFidil le Paddy Glackin.
D:Matt Molloy: Heathery Breeze.
Z:Often played with part 3 as the first part.
M:4/4
L:1/8
K:Edor
~E3B BAFD|~E3B ADFD|~E3B BAFA|BcdB ADFA:|
B2eB fBeB|~B2dB ADFA|1 B2eB fBeB|dcdB ADFA:|2 (3Bcd eg fdec|dcdB ADFA|]
BEGF EFGA|BEGB ADFA|1 BEGF EFGA|BAdB ADFA:|2 BAGF EFGA|BAdB ADFD|]
</abc>
